!!!!SEGMENT: pl-sa--552-a-ix-32--046_anonim--mazur.krn
!!!cenid: 18xx:557
!!!COM: Anonim
!!!COM-rismID: pe30004985
!!!CDT:
!!!CNT:
!!!OTL: Mazur
!!!PDT:
!!!AGN: Secular; Mazurka
!!!SMS-siglum: PL-SA
!!!SMS-shelfmark: 552/A IX 32
!!!SMS-shelfwork: 046 W
!!!SMS-variant:
!!!SMS-altvar:
!!!NIFC-rismSourceID: 1001069591
!!!NIFC-rismChildID: 1001069591
!!!NIFC-islandoraID:
!!!URL-pdf-islandora:
!!!URL-scan: https://bc.bdsandomierz.pl/dlibra/publication/1308/edition/1276/content @EN{Scan in the Sandomierz Diocese Digital Library} @PL{Skany w portalu Cyfrowa Biblioteka Diecezjalna w Sandomierzu}
!!!ONB-nifc: Str. 24, s. 5-6
!!!AIN: 2 empty
!!!key:
**kern	**kern
*part2	*part1
*staff2	*staff1
*Iempty	*Iempty
*I"	*I"
*clefF4	*clefG2
*k[b-]	*k[b-]
*F:	*F:
*M3/8	*M3/8
*>[A,A,B,B]	*>[A,A,B,B]
=1	=1
*>A	*>A
!LO:TX:a:t=P:problem=omyłkowo wpisany klucz F3 zamiast F4	!
!LO:TX:a:t=P:problem=mixed beam	!LO:TX:a:i:t=Mazur
8FL 8FF/	16.aa\LL
.	32f\K
8c 8A 8F\	16.a\
.	32cc\K
8cJ 8A 8F\	16.ff\
.	32aa\JJk
=2	=2
*tremolo	*
8cL 8A 8F\	16.ccc\LL
.	32ccc#X\JK
8c 8A 8F\	8.ddd\
8cJ 8A 8F\	.
.	16ccc#\Jk
*Xtremolo	*
=3	=3
!	!LO:TX:a:t=P:problem=mixed beam
!	!LO:N:vis=8.
8C 8CC/	16.bb-X\LL
!	!LO:N:vis=16
.	32g/JJk
8B-L 8G 8C\	16.b-\LL
.	32cc\K
8B-J 8G 8C\	16.ee\
.	32gg\JJk
=4	=4
*rep	*
8C 8CC/	16bb-X\LL
.	16gg\J
8B-L 8G 8C\	8.ccc\
8B-J 8G 8C\	.
.	16bb-\Jk
*Xrep	*
=5	=5
!	!LO:TX:a:t=P:problem=mixed beam
!	!LO:N:vis=8.
8F 8FF/	16.aa\LL
!	!LO:N:vis=16
.	32f/JJk
!	!LO:N:vis=8.
8cL 8A 8F\	16.a\LL
!	!LO:N:vis=16
.	32cc\K
!	!LO:N:vis=8.
8cJ 8A 8F\	16.ff\
!	!LO:N:vis=16
.	32aa\JJk
=6	=6
*rep	*
8F 8FF/	16dd\LL
.	16ff#X\
8cL 8A 8F\	16gg\
.	16aa\
8cJ 8A 8F\	16bbn\
.	16ccc\JJ
*Xrep	*
=7	=7
8C 8CC/	16ddd\LL
.	16ccc\
8B-L 8G 8C\	16bbn\
.	16ccc\
8B-J 8G 8C\	16bb-X\
.	16gg\JJ
=8	=8
*tremolo	*
.	8qqgg/
8cL 8A 8F\	8ff\L
8c 8A 8F\	8ff\J
8cJ 8A 8F\	8r
*Xtremolo	*
!!LO:LB:g=original
=9:|!|:	=9:|!|:
*>B	*>B
!LO:TX:a:t=P:problem=brak kasownika przy kluczu	!LO:TX:a:t=P:problem=brak kasownika przy kluczu
8G\L	16.eeLL 16.cc\
.	32ffJK 32dd\
8e 8c\	8.gg 8.ee\
8eJ 8c\	.
.	16ff#XJk 16dd#X\
=10	=10
*rep	*
8G\L	16ggLL 16ee\
.	16ffJ 16dd\
8e 8c\	8.gg 8.ee\
8eJ 8c\	.
.	16ffnJk 16ddn\
*Xrep	*
=11	=11
!	!LO:SIC:v:n=2:s=16b
8G 8GG/	16ddLL 16b-\
.	16eeJ 16cc\
!LO:SIC:v:n=2:s=8b	!
8dL 8B- 8G\	8.ff 8.dd\
!LO:SIC:v:n=2:s=8b	!
8dJ 8B- 8G\	.
.	16eeJk 16cc\
=12	=12
*rep	*
8G 8GG/	16ffLL 16dd\
.	16eeJ 16cc\
!LO:SIC:v:n=2:s=8b	!
8dL 8B- 8G\	8.ff 8.dd\
!LO:SIC:v:n=2:s=8b	!
8dJ 8B- 8G\	.
!	!LO:TX:a:t=d
.	16eeJk 16cc 16f\
*Xrep	*
=13	=13
8cL 8C\	16.een\LL
.	32ff\K
8e 8c\	16.gg\
.	32aa\K
!	!LO:SIC:v:s=16.b
8eJ 8c\	16.bb-\
.	32ccc\JJk
=14	=14
8GG\L	16dd\LL
.	16ee\
8G 8D\	16ff\
.	16gg\
8GJ 8D\	16aa\JJ
.	16ryy
=15	=15
*rep	*
8GG\L	16g\LL
.	16a\
!	!LO:SIC:v:s=16b
8G 8D\	16b-\
.	16cc\
8GJ 8D\	16dd\
!	!LO:SIC:v:s=16b
.	16b-\JJ
*Xrep	*
=16	=16
!LO:TX:a:t=P:problem=mixed beam	!
8c\L	16dd\LL
.	16ee\JJ
8C/J	4cc\
8r	.
=:|!|:;;	=:|!|:;;
*-	*-
!!!system-decoration: {s1,s2}
!!!ENC: Marta Lawrence
!!!END: 2020-12-13
!!!ENC: Berenika Jozajtis
!!!END: 2020-06-18
!!!YEC: Copyright 2022 Narodowy Instytut Fryderyka Chopina (https://polishscores.org)
!!!YEM: License CC-BY-4.0 (https://creativecommons.org/licenses/by/4.0)
